images/portfolio__logo_image-2.svg

<svg width="273" height="52" viewBox="0 0 273 52" fill="none" xmlns="http://www.w3.org/2000/svg">
<path d="M13.0851 0.745778C12.9615 0.795224 12.1209 0.894116 11.2308 0.993008C10.3408 1.06718 9.45079 1.24024 9.27773 1.33913C9.0305 1.48747 9.27773 2.30333 10.3655 4.8498C11.1567 6.6793 11.8242 8.23685 11.8736 8.31102C11.9231 8.40991 12.8378 8.06379 13.8762 7.5446C16.843 6.08595 19.0433 5.54204 22.6529 5.3937C26.0152 5.24536 27.7211 5.46787 30.5148 6.3579C33.9018 7.44571 36.3247 8.92909 39.2915 11.7228C40.3793 12.7612 41.0962 13.3792 40.8737 13.1073C35.6572 6.33318 27.8694 1.93248 19.2658 0.894116C17.1891 0.646886 13.629 0.547994 13.0851 0.745778Z" fill="white"/>
<path d="M250.253 12.1681L247.583 13.0087V31.4026V49.7718L248.769 50.0437C249.412 50.1921 251.415 50.4393 253.22 50.5876C260.241 51.2304 265.111 49.7718 268.993 45.9397C271.465 43.4674 272.677 40.5748 272.949 36.3472C273.418 29.672 270.649 24.6038 265.507 22.7248C264.592 22.4034 263.554 22.2798 261.551 22.2798C258.659 22.2798 257.052 22.7001 254.95 24.0351C254.431 24.3318 253.961 24.6038 253.887 24.6038C253.813 24.6038 253.764 21.5875 253.764 17.9285C253.764 11.7231 253.739 11.2533 253.343 11.2781C253.096 11.3028 251.712 11.6983 250.253 12.1681ZM262.54 27.7683C264.765 28.9056 265.977 30.9576 266.372 34.221C266.99 39.1162 265.161 43.0966 261.378 45.0249C259.92 45.7666 257.521 46.0633 255.148 45.7666L253.764 45.5936V37.2372V28.9056L254.703 28.4358C257.67 26.9772 260.562 26.7299 262.54 27.7683Z" fill="white"/>
<path d="M98.602 13.4782C94.0282 14.2941 89.7759 17.1372 87.1552 21.0435C83.249 26.8781 83.249 36.6931 87.18 42.5772C92.891 51.0819 105.079 52.8373 113.238 46.3351C115.859 44.2584 117.713 41.4647 118.825 37.954C119.32 36.2976 119.394 35.63 119.394 31.7733C119.394 27.9412 119.32 27.2489 118.825 25.5925C117.886 22.601 116.625 20.4996 114.573 18.4228C111.186 15.0358 107.626 13.503 102.706 13.3546C101.148 13.3052 99.2942 13.3546 98.602 13.4782ZM106.241 18.8678C112.051 21.5874 114.82 29.7212 112.496 37.1134C109.258 47.3487 96.8961 48.6343 92.2234 39.2149C90.9378 36.6437 90.7153 35.4817 90.7153 31.6496C90.7153 28.6829 90.7895 27.9412 91.284 26.4578C92.0504 24.1586 93.2618 22.2549 94.8441 20.7221C97.1186 18.5712 99.0223 17.9037 102.335 18.0025C104.239 18.052 104.807 18.1756 106.241 18.8678Z" fill="white"/>
<path d="M173.166 15.1348C173.463 16.0742 182.561 49.7222 182.561 49.92C182.561 49.9942 184.317 50.0684 186.467 50.0684H190.349L193.662 36.7674C195.491 29.4741 197.049 23.417 197.123 23.3181C197.222 23.1945 198.78 29.1774 200.609 36.5943L203.922 50.0684H207.803H211.71L212.08 48.758C212.278 48.0658 214.404 40.2286 216.803 31.4025C219.201 22.5517 221.203 15.1348 221.277 14.8875C221.401 14.492 221.154 14.4672 218.311 14.4672H215.22L214.998 15.2584C214.874 15.7034 213.242 22.4528 211.339 30.2405L207.902 44.3821L204.169 29.4988L200.461 14.5909H197.173H193.884L190.3 29.0538C188.322 37.0146 186.616 43.5909 186.542 43.7145C186.443 43.8134 184.762 37.2618 182.784 29.1774L179.224 14.4672H176.084H172.944L173.166 15.1348Z" fill="white"/>
<path d="M2.10808 20.648C-1.05646 28.8561 -0.636173 38.3497 3.22062 46.1622C4.43204 48.6345 6.70656 52.1204 7.02796 51.9968C7.15157 51.9474 8.23938 50.7359 9.47553 49.2773L11.7253 46.6319L10.9095 46.088C6.5335 43.0224 3.27006 38.3003 1.9103 33.0343C0.847207 28.9055 1.16861 23.3923 2.70143 19.758C2.89922 19.2635 3.02283 18.7938 2.97338 18.7444C2.92394 18.6949 2.52837 19.5355 2.10808 20.648Z" fill="white"/>
<path d="M135.958 23.4664C134.549 23.9114 132.448 25.024 131.088 25.9882L129.901 26.8287V25.2217V23.6148H126.934H123.968V36.8416V50.0684H127.058H130.148V40.3522V30.6361L131.459 29.8697C133.56 28.5841 135.093 28.0154 136.675 27.8918C137.961 27.7929 138.307 27.8424 139.024 28.3616C139.494 28.6582 140.112 29.3258 140.384 29.7955C140.878 30.6114 140.903 31.1058 140.977 40.3522L141.051 50.0684H144.018H146.985L146.911 39.3633C146.836 29.9191 146.762 28.5594 146.391 27.5457C145.798 25.9882 144.76 24.8262 143.227 23.9856C142.04 23.3428 141.62 23.2439 139.42 23.1945C137.862 23.145 136.576 23.2439 135.958 23.4664Z" fill="white"/>
<path d="M159.717 23.3925C157.097 24.0106 153.833 26.6806 152.325 29.4743C150.767 32.3669 150.199 37.534 151.039 41.1189C152.103 45.6432 155.168 48.8572 159.692 50.2169C161.819 50.8597 166.64 50.8103 169.26 50.118C171.411 49.5247 173.908 48.4369 173.908 48.0413C173.908 47.9177 173.513 47.0277 172.993 46.0635C172.351 44.8273 171.98 44.3823 171.708 44.4812C171.485 44.5306 170.472 44.9015 169.458 45.2723C167.925 45.841 167.184 45.9646 165.132 45.9646C163.03 45.9893 162.461 45.8904 161.349 45.396C159.099 44.3823 157.467 41.9842 156.998 38.9927L156.849 37.9543H165.527H174.23L174.081 35.037C173.834 30.5374 173.092 28.2876 171.139 26.1862C169.137 24.0106 166.714 23.0958 163.055 23.1453C161.745 23.17 160.261 23.2689 159.717 23.3925ZM165.626 28.4113C166.689 29.2271 167.653 31.1061 167.876 32.8367L168.049 33.9987H162.536H157.022L157.171 33.1086C157.492 31.1061 159.099 28.8563 160.83 27.991C162.14 27.2987 164.439 27.5212 165.626 28.4113Z" fill="white"/>
<path d="M228.027 23.6891C222.167 25.6916 218.706 32.5646 219.893 39.8826C221.129 47.4479 227.112 51.6013 235.37 50.5877C237.891 50.291 241.056 49.3763 242.341 48.5851L243.157 48.0659L242.193 46.2859C241.105 44.2586 241.179 44.2833 238.435 45.2722C235.963 46.187 232.254 46.2859 230.499 45.47C228.249 44.4317 226.519 41.9594 226.173 39.2398L226 37.9542H234.603H243.207L243.058 34.6661C242.984 32.2185 242.811 31.0318 242.416 29.9193C241.278 26.73 239.078 24.5544 235.988 23.5902C233.763 22.8979 230.202 22.9474 228.027 23.6891ZM233.664 27.8425C235.32 28.4606 236.655 30.4632 236.878 32.6635L237.026 33.9986H231.538H226.024L226.197 33.1827C227.038 29.1776 230.549 26.6558 233.664 27.8425Z" fill="white"/>
<path d="M45.9667 30.191C45.5217 33.677 43.89 37.8057 41.7638 40.7972C38.8959 44.8271 33.9513 48.1894 29.2787 49.3266C27.2514 49.8211 27.2514 50.0683 29.2787 49.6728C38.9454 47.8433 47.3265 41.6131 51.7766 32.96C52.4688 31.6497 53.0128 30.4877 53.0128 30.3641C53.0128 30.2405 51.7519 29.8696 50.2438 29.5482C45.6453 28.6088 46.1645 28.5346 45.9667 30.191Z" fill="white"/>
</svg>

<svg width="273" height="52" fill="none" xmlns="http://www.w3.org/2000/svg"><path d="M13.085.746c-.124.05-.964.148-1.854.247-.89.074-1.78.247-1.953.346-.248.148 0 .964 1.088 3.51.79 1.83 1.458 3.388 1.508 3.462.05.099.964-.247 2.002-.766 2.967-1.459 5.167-2.003 8.777-2.151 3.362-.149 5.068.074 7.862.964 3.387 1.088 5.81 2.571 8.776 5.365 1.088 1.038 1.805 1.656 1.583 1.384C35.657 6.333 27.869 1.932 19.266.894c-2.077-.247-5.637-.346-6.18-.148zm237.168 11.422l-2.67.84v36.765l1.186.272c.643.148 2.646.395 4.451.544 7.021.642 11.891-.816 15.773-4.648 2.472-2.473 3.684-5.365 3.956-9.593.469-6.675-2.3-11.743-7.442-13.622-.915-.322-1.953-.445-3.956-.445-2.892 0-4.499.42-6.601 1.755-.519.297-.989.569-1.063.569-.074 0-.123-3.017-.123-6.675 0-6.206-.025-6.676-.421-6.65-.247.024-1.631.42-3.09.89zm12.287 15.6c2.225 1.138 3.437 3.19 3.832 6.453.618 4.895-1.211 8.876-4.994 10.804-1.458.742-3.857 1.038-6.23.742l-1.384-.173V28.906l.939-.47c2.967-1.459 5.859-1.706 7.837-.668zM98.602 13.478c-4.574.816-8.826 3.66-11.447 7.566-3.906 5.834-3.906 15.65.025 21.533 5.711 8.505 17.899 10.26 26.058 3.758 2.621-2.077 4.475-4.87 5.587-8.381.495-1.656.569-2.324.569-6.18 0-3.833-.074-4.525-.569-6.181-.939-2.992-2.2-5.093-4.252-7.17-3.387-3.387-6.947-4.92-11.867-5.068-1.558-.05-3.412 0-4.104.123zm7.639 5.39c5.81 2.72 8.579 10.853 6.255 18.245-3.238 10.236-15.6 11.521-20.273 2.102-1.285-2.571-1.508-3.733-1.508-7.565 0-2.967.075-3.709.569-5.192.766-2.3 1.978-4.203 3.56-5.736 2.275-2.15 4.178-2.818 7.491-2.72 1.904.05 2.472.174 3.906.866zm66.925-3.733c.297.94 9.395 34.587 9.395 34.785 0 .074 1.756.148 3.906.148h3.882l3.313-13.3c1.829-7.294 3.387-13.351 3.461-13.45.099-.123 1.657 5.86 3.486 13.276l3.313 13.474h7.788l.37-1.31c.198-.692 2.324-8.53 4.723-17.356 2.398-8.85 4.4-16.267 4.474-16.515.124-.395-.123-.42-2.966-.42h-3.091l-.222.791c-.124.445-1.756 7.195-3.659 14.983l-3.437 14.141-3.733-14.883-3.708-14.908h-6.577L190.3 29.054c-1.978 7.96-3.684 14.537-3.758 14.66-.099.1-1.78-6.452-3.758-14.537l-3.56-14.71h-6.28l.222.668zM2.108 20.648C-1.056 28.856-.636 38.35 3.221 46.162c1.211 2.473 3.486 5.958 3.807 5.835.124-.05 1.211-1.261 2.448-2.72l2.25-2.645-.817-.544C6.533 43.022 3.27 38.3 1.91 33.034c-1.063-4.128-.741-9.642.791-13.276.198-.494.322-.964.272-1.014-.05-.05-.445.791-.865 1.904zm133.85 2.818c-1.409.445-3.51 1.558-4.87 2.522l-1.187.84v-3.213h-5.933v26.453h6.18V30.636l1.311-.766c2.101-1.286 3.634-1.855 5.216-1.978 1.286-.1 1.632-.05 2.349.47.47.296 1.088.964 1.36 1.434.494.815.519 1.31.593 10.556l.074 9.716h5.934l-.074-10.705c-.075-9.444-.149-10.804-.52-11.817-.593-1.558-1.631-2.72-3.164-3.56-1.187-.643-1.607-.742-3.807-.791-1.558-.05-2.844.049-3.462.271zm23.759-.074c-2.62.619-5.884 3.289-7.392 6.082-1.558 2.893-2.126 8.06-1.286 11.645 1.064 4.524 4.129 7.738 8.653 9.098 2.127.643 6.948.593 9.568-.099 2.151-.593 4.648-1.681 4.648-2.077 0-.123-.395-1.013-.915-1.977-.642-1.237-1.013-1.682-1.285-1.583-.223.05-1.236.42-2.25.791-1.533.569-2.274.693-4.326.693-2.102.024-2.671-.075-3.783-.569-2.25-1.014-3.882-3.412-4.351-6.403l-.149-1.039h17.381l-.149-2.917c-.247-4.5-.989-6.75-2.942-8.85-2.002-2.176-4.425-3.091-8.084-3.042-1.31.025-2.794.124-3.338.247zm5.909 5.02c1.063.815 2.027 2.694 2.25 4.425l.173 1.162h-11.027l.149-.89c.321-2.003 1.928-4.253 3.659-5.118 1.31-.692 3.609-.47 4.796.42zm62.401-4.722c-5.86 2.002-9.321 8.875-8.134 16.193 1.236 7.565 7.219 11.718 15.477 10.705 2.521-.297 5.686-1.212 6.971-2.003l.816-.52-.964-1.78c-1.088-2.026-1.014-2.002-3.758-1.013-2.472.915-6.181 1.014-7.936.198-2.25-1.038-3.98-3.51-4.326-6.23L226 37.954h17.207l-.149-3.288c-.074-2.447-.247-3.634-.642-4.747-1.138-3.189-3.338-5.365-6.428-6.329-2.225-.692-5.786-.643-7.961.1zm5.637 4.152c1.656.619 2.991 2.621 3.214 4.822l.148 1.335h-11.002l.173-.816c.841-4.005 4.352-6.527 7.467-5.34zM45.967 30.191c-.445 3.486-2.077 7.615-4.203 10.606-2.868 4.03-7.813 7.392-12.485 8.53-2.028.494-2.028.741 0 .346 9.666-1.83 18.048-8.06 22.498-16.713.692-1.31 1.236-2.472 1.236-2.596 0-.123-1.261-.494-2.77-.816-4.598-.94-4.079-1.013-4.276.643z" fill="#fff"/></svg>
